src/assets/images/rDEX_active.svg

<svg height="37" viewBox="0 0 37 37" width="37" xmlns="http://www.w3.org/2000/svg"><g fill-rule="evenodd" transform="translate(.25 .25)"><path d="m17.8651 36c9.8667 0 17.8652-8.0589 17.8652-18 0-9.94113-7.9985-18-17.8652-18-9.8666 0-17.8651 8.05887-17.8651 18 0 9.9411 7.9985 18 17.8651 18z" fill="#00f3ab"/><g transform="translate(10 10)"><path d="m5.47699 13.7143c.97163 0 8.64521.6099 8.89531-.7273.1443-.7985.2164-1.5392.2164-2.2222 0-2.62629-.5218-4.66571-1.5656-6.11834-1.0438-1.45262-2.8644-2.79942-5.01444-2.79942h-5.2381v9.86726s.99215 1.2727 1.46834 1.619c.47619.3464 1.23809.381 1.23809.381zm-3.62995-11.86726 8.10614-1.84704h4.82312c.9236 0 0 7.24385 0 10.1587 0 2.2511.087 4.0243-1.7532 4.6176-1.3345.4303-3.83318 1.1285-7.54611 1.1285-.57143 0-2.19047 0-2.19047 0l-3.28652-1.1285v-1.847z" fill="#ffd061" transform="translate(.237294)"/><g fill="#23292f"><path d="m0 15.971v-10.74779c.0669646-3.48216 1.80802-5.22321 5.22321-5.22321h5.02229v2.31027h-3.91737c-1.80805 0-2.74554.90401-2.8125 2.71205v10.94868z"/><path d="m0 15.971v-10.74779c.0669646-3.48216 1.80802-5.22321 5.22321-5.22321h5.02229v2.31027h-3.91737c-1.80805 0-2.74554.90401-2.8125 2.71205v10.94868z" transform="matrix(-1 .00000009 -.00000009 -1 15.959823 15.970983)"/></g></g><path d="m0 8.38477v-5.64258c.0351564-1.828137.94921-2.74219 2.74219-2.74219h2.63672v1.21289h-2.05664c-.94923 0-1.44141.47461-1.47657 1.42383v5.74805z" fill="#fff" transform="translate(6 5)"/></g></svg>

<?xml version="1.0" encoding="utf-8"?>
<svg width="37px" height="37px" viewBox="0 0 37 37" version="1.1" xmlns:xlink="http://www.w3.org/1999/xlink" xmlns="http://www.w3.org/2000/svg">
  <g id="Group-2-Copy-58" transform="translate(0.25 0.25)">
    <path d="M17.8651 36C27.7318 36 35.7303 27.9411 35.7303 18C35.7303 8.05887 27.7318 0 17.8651 0C7.9985 0 0 8.05887 0 18C0 27.9411 7.9985 36 17.8651 36Z" id="Oval-5-Copy-2" fill="#00F3AB" fill-rule="evenodd" stroke="none" />
    <g id="Group-14" transform="translate(10 10)">
      <path d="M5.47699 13.7143C6.44862 13.7143 14.1222 14.3242 14.3723 12.987C14.5166 12.1885 14.5887 11.4478 14.5887 10.7648C14.5887 8.13851 14.0669 6.09909 13.0231 4.64646C11.9793 3.19384 10.1587 1.84704 8.00866 1.84704L2.77056 1.84704L2.77056 11.7143C2.77056 11.7143 3.76271 12.987 4.2389 13.3333C4.71509 13.6797 5.47699 13.7143 5.47699 13.7143ZM1.84704 1.84704L9.95318 1.65793e-12C12.8681 1.65793e-12 12.9293 3.30004e-12 14.7763 1.62004e-12C15.6999 7.801e-13 14.7763 7.24385 14.7763 10.1587C14.7763 12.4098 14.8633 14.183 13.0231 14.7763C11.6886 15.2066 9.18992 15.9048 5.47699 15.9048C4.90556 15.9048 3.28652 15.9048 3.28652 15.9048L0 14.7763L0 12.9293L1.84704 1.84704Z" transform="translate(0.23729357 0)" id="D" fill="#FFD061" fill-rule="evenodd" stroke="none" />
      <path d="M0 15.971L0 5.22321C0.0669646 1.74105 1.80802 0 5.22321 0L10.2455 0L10.2455 2.31027L6.32813 2.31027C4.52008 2.31027 3.58259 3.21428 3.51563 5.02232L3.51563 15.971L0 15.971Z" id="r-copy" fill="#23292F" fill-rule="evenodd" stroke="none" />
      <path d="M0 15.971L0 5.22321C0.0669646 1.74105 1.80802 0 5.22321 0L10.2455 0L10.2455 2.31027L6.32813 2.31027C4.52008 2.31027 3.58259 3.21428 3.51563 5.02232L3.51563 15.971L0 15.971Z" transform="matrix(-1 8.742278E-08 -8.742278E-08 -1 15.959823 15.970983)" id="r-copy-2" fill="#23292F" fill-rule="evenodd" stroke="none" />
    </g>
    <path d="M0 8.38477L0 2.74219C0.0351564 0.914053 0.94921 0 2.74219 0L5.37891 0L5.37891 1.21289L3.32227 1.21289C2.37304 1.21289 1.88086 1.6875 1.8457 2.63672L1.8457 8.38477L0 8.38477Z" transform="translate(6 5)" id="r" fill="#FFFFFF" fill-rule="evenodd" stroke="none" />
  </g>
</svg>
